X:408
T: Rschen (127a), S. 290
N: T0296
O: Luxemburg
S: Singendes Volk, Esch-Alzette 1937 posth.]
N: Reuland, hhh Gabriel Petry, 1907;
N: (127c)- Straen, fff Witry, 17.1.1933
R: Liebeslieder]
M: 3/4
L: 1/16
K: D
D3F | A4B4A3G | G4F4
E3F | G4B4A3G | F4z4
D3F | A4B4A3G | G4F4
E3F | G4B4A3G | F4z4
A2A2 | A2F2D2F2A2B2 | c4c4
B2c2 | d6d2e2d2 | c2B2A2
G2F2G2 | A6B2A2G2 | G2F2F2
F2E2F2 | G4B4A2G2 | F4z4

@@@ Tune index: 8462
